icon/tor.svg

<?xml version="1.0" encoding="UTF-8"?>
<svg width="512px" height="512px" viewBox="0 0 512 512" version="1.1" xmlns="http://www.w3.org/2000/svg" xmlns:xlink="http://www.w3.org/1999/xlink">
    <defs>
        <linearGradient x1="50%" y1="100%" x2="50%" y2="0%" id="linearGradient-1">
            <stop stop-color="#420C5D" offset="0%"></stop>
            <stop stop-color="#951AD1" offset="100%"></stop>
        </linearGradient>
        <path d="M25,29 C152.577777,29 256,131.974508 256,259 C256,386.025492 152.577777,489 25,489 L25,29 Z" id="path-2"></path>
        <filter x="-18.2%" y="-7.4%" width="129.4%" height="114.8%" filterUnits="objectBoundingBox" id="filter-3">
            <feOffset dx="-8" dy="0" in="SourceAlpha" result="shadowOffsetOuter1"></feOffset>
            <feGaussianBlur stdDeviation="10" in="shadowOffsetOuter1" result="shadowBlurOuter1"></feGaussianBlur>
            <feColorMatrix values="0 0 0 0 0.250980392   0 0 0 0 0.250980392   0 0 0 0 0.250980392  0 0 0 0.2 0" type="matrix" in="shadowBlurOuter1"></feColorMatrix>
        </filter>
    </defs>
    <g id="tor-browser-icon" stroke="none" stroke-width="1" fill="none" fill-rule="evenodd">
        <g id="icon_512x512">
            <g id="Group">
                <g id="tb_icon/Stable">
                    <g id="Stable">
                        <circle id="background" fill="#F2E4FF" fill-rule="nonzero" cx="256" cy="256" r="246"></circle>
                        <path d="M256.525143,465.439707 L256.525143,434.406609 C354.826191,434.122748 434.420802,354.364917 434.420802,255.992903 C434.420802,157.627987 354.826191,77.8701558 256.525143,77.5862948 L256.525143,46.5531962 C371.964296,46.8441537 465.446804,140.489882 465.446804,255.992903 C465.446804,371.503022 371.964296,465.155846 256.525143,465.439707 Z M256.525143,356.820314 C311.970283,356.529356 356.8487,311.516106 356.8487,255.992903 C356.8487,200.476798 311.970283,155.463547 256.525143,155.17259 L256.525143,124.146588 C329.115485,124.430449 387.881799,183.338693 387.881799,255.992903 C387.881799,328.654211 329.115485,387.562455 256.525143,387.846316 L256.525143,356.820314 Z M256.525143,201.718689 C286.266674,202.00255 310.3026,226.180407 310.3026,255.992903 C310.3026,285.812497 286.266674,309.990353 256.525143,310.274214 L256.525143,201.718689 Z M0,255.992903 C0,397.384044 114.60886,512 256,512 C397.384044,512 512,397.384044 512,255.992903 C512,114.60886 397.384044,0 256,0 C114.60886,0 0,114.60886 0,255.992903 Z" id="center" fill="url(#linearGradient-1)"></path>
                        <g id="half" transform="translate(140.500000, 259.000000) scale(-1, 1) translate(-140.500000, -259.000000) ">
                            <use fill="black" fill-opacity="1" filter="url(#filter-3)" xlink:href="#path-2"></use>
                            <use fill="url(#linearGradient-1)" fill-rule="evenodd" xlink:href="#path-2"></use>
                        </g>
                    </g>
                </g>
            </g>
        </g>
    </g>
</svg>

<svg xmlns="http://www.w3.org/2000/svg" xmlns:xlink="http://www.w3.org/1999/xlink" width="512" height="512" viewBox="0 0 512 512"><defs><linearGradient id="a" x1="50%" x2="50%" y1="100%" y2="0%"><stop offset="0%" stop-color="#420c5d"/><stop offset="100%" stop-color="#951ad1"/></linearGradient><filter id="d" width="129.4%" height="114.8%" x="-18.2%" y="-7.4%" filterUnits="objectBoundingBox"><feOffset dx="-8" in="SourceAlpha" result="shadowOffsetOuter1"/><feGaussianBlur in="shadowOffsetOuter1" result="shadowBlurOuter1" stdDeviation="10"/><feColorMatrix in="shadowBlurOuter1" values="0 0 0 0 0.250980392 0 0 0 0 0.250980392 0 0 0 0 0.250980392 0 0 0 0.2 0"/></filter><path id="b" d="M25 29c127.578 0 231 102.975 231 230S152.578 489 25 489z"/></defs><g fill="none" fill-rule="evenodd"><circle cx="256" cy="256" r="246" fill="#f2e4ff" fill-rule="nonzero"/><path fill="url(#a)" d="M256.525 465.44v-31.033c98.301-.284 177.896-80.042 177.896-178.414 0-98.365-79.595-178.123-177.896-178.407V46.553c115.44.291 208.922 93.937 208.922 209.44 0 115.51-93.483 209.163-208.922 209.447m0-108.62c55.445-.29 100.324-45.304 100.324-100.827 0-55.516-44.879-100.53-100.324-100.82v-31.026c72.59.283 131.357 59.192 131.357 131.846 0 72.661-58.767 131.57-131.357 131.853zm0-155.101c29.742.284 53.778 24.461 53.778 54.274 0 29.82-24.036 53.997-53.778 54.281zM0 255.993C0 397.384 114.609 512 256 512c141.384 0 256-114.616 256-256.007C512 114.609 397.384 0 256 0 114.609 0 0 114.609 0 255.993"/><g transform="matrix(-1 0 0 1 281 0)"><use xlink:href="#b" fill="#000" filter="url(#d)"/><use xlink:href="#b" fill="url(#a)"/></g></g></svg>
